img/table/quote.svg

<svg width="40" height="40" viewBox="0 0 40 40" fill="none" xmlns="http://www.w3.org/2000/svg">
<path fill-rule="evenodd" clip-rule="evenodd" d="M8.88889 19.1111V22H18V40H0.000443419L0 19.1111C0 12.2287 1.99228 6.53084 5.92097 3.3333C8.63869 1.12146 11.933 0 16 0V9.47368C13.7922 9.47368 8.88889 10.3574 8.88889 19.1111ZM30.8889 19.1111V22H40V40H22V19.1111C22 12.2287 23.7701 6.53084 27.6988 3.3333C30.4165 1.12146 33.933 0 38 0V9.47368C35.7922 9.47368 30.8889 10.3574 30.8889 19.1111Z" fill="#55839E"/>
</svg>

<svg width="40" height="40" fill="none" xmlns="http://www.w3.org/2000/svg"><path fill-rule="evenodd" clip-rule="evenodd" d="M8.889 19.111V22H18v18H0V19.111C0 12.23 1.992 6.531 5.921 3.333 8.639 1.121 11.933 0 16 0v9.474c-2.208 0-7.111.883-7.111 9.637zm22 0V22H40v18H22V19.111c0-6.882 1.77-12.58 5.699-15.778C30.416 1.121 33.933 0 38 0v9.474c-2.208 0-7.111.883-7.111 9.637z" fill="#55839E"/></svg>
